!!!!SEGMENT: pl-kk--kk-i-134--003-001_lasso-ferdinand-di--domine-non-est-exaltatum-domine-non-est-exaltatum.krn
!!!cenid: 16xx:743
!!!COM: Lasso, Ferdinand di
!!!COM-rismid: pe30010768
!!!CDT: ~1560-1609
!!!CNT:
!!!OPR: Domine non est exaltatum
!!!OTL: Domine non est exaltatum
!!!OMV: 001
!!!PDT:
!!!AGN: Sacred
!!!SMS-siglum: PL-Kk
!!!SMS-shelfmark: Kk.I.134
!!!SMS-shelfwork: 003-001 M
!!!SMS-variant:
!!!SMS-altvar:
!!!NIFC-rismid: 1001143942
!!!URL-scan: http://repozytorium.nifc.pl/skany/pl-kk-nut--i-134
!!!ONB-nifc: UWAGA: utwory w zbiorze: 1. Benedicte dominum, 2. Gaudent in caelis, 3. Domine non est exaltatum – Domine… (1), 3. Domine non est exaltatum – Sicut ablactus est (2), 4. Hodie Christus
**kern	**text	**kern	**kern	**kern
*part4	*part4	*part3	*part2	*part1
*staff4	*staff4	*staff3	*staff2	*staff1
*I"Baſso.	*	*I"[Tenore]	*I"[Alto]	*I"[Canto]
*I'B.	*	*I'[T.]	*I'[A.]	*I'[C.]
*clefF4	*	*clefGv2	*clefG2	*clefG2
*k[b-]	*	*k[b-]	*k[b-]	*k[b-]
*F:	*	*F:	*F:	*F:
*M2/1	*	*M2/1	*M2/1	*M2/1
*met(c|)	*	*met(c|)	*met(c|)	*met(c|)
=1-	=1-	=1-	=1-	=1-
!LO:TX:a:t=P:problem:znaki[BB-B-]	!	!	!	!
00r	.	0ryy	0ryy	0ryy
=2-	=2-	=2-	=2-	=2-
.	.	0ryy	0ryy	0ryy
=3-	=3-	=3-	=3-	=3-
00r	.	0ryy	0ryy	0ryy
=4-	=4-	=4-	=4-	=4-
.	.	0ryy	0ryy	0ryy
=5-	=5-	=5-	=5-	=5-
0r	.	0ryy	0ryy	0ryy
=6-	=6-	=6-	=6-	=6-
!LO:TX:t=P:problem:litera D duża przed kluczem	!	!	!	!
1.F	Do-	1ryy	1ryy	1ryy
.	.	1ryy	1ryy	1ryy
*2\right	*	*	*	*
2D\	-mi-	.	.	.
=7-	=7-	=7-	=7-	=7-
2F\	-ne	1ryy	1ryy	1ryy
!LO:TX:t=P:problem:kreska pseudotaktowa	!	!	!	!
2C/	n(on)	.	.	.
2.D\	est	1ryy	1ryy	1ryy
4E\	.	.	.	.
=8-	=8-	=8-	=8-	=8-
2F\	.	0ryy	0ryy	0ryy
1D\	ex-	.	.	.
!LO:TX:t=P:problem:kreska pseudotaktowa	!	!	!	!
2C/	-al-	.	.	.
=9-	=9-	=9-	=9-	=9-
2.D\	-ta-	1ryy	1ryy	1ryy
4E\	.	.	.	.
4F\	.	1ryy	1ryy	1ryy
4E\	.	.	.	.
4F\	.	.	.	.
4G\	.	.	.	.
=10-	=10-	=10-	=10-	=10-
2A\	.	1ryy	1ryy	1ryy
!LO:TX:t=P:problem:kreska pseudotaktowa	!	!	!	!
2F\	.	.	.	.
!LO:TX:t=P:problem:kreska pseudotaktowa	!	!	!	!
1F	-tum	1ryy	1ryy	1ryy
=11-	=11-	=11-	=11-	=11-
2r	.	0ryy	0ryy	0ryy
2.F\	Cor	.	.	.
4E\	.	.	.	.
4D/	.	.	.	.
4C/	.	.	.	.
=12-	=12-	=12-	=12-	=12-
2.BB-/	me-	1ryy	1ryy	1ryy
4C/	.	.	.	.
2D\	.	1ryy	1ryy	1ryy
2F\	-um	.	.	.
=13-	=13-	=13-	=13-	=13-
!LO:TX:t=P:problem:kreska pseudotaktowa	!	!	!	!
1D	.	1ryy	1ryy	1ryy
0r	.	1ryy	1ryy	1ryy
=14-	=14-	=14-	=14-	=14-
.	.	1ryy	1ryy	1ryy
1r	.	1ryy	1ryy	1ryy
=15-	=15-	=15-	=15-	=15-
2r	.	0ryy	0ryy	0ryy
1F\	ne-	.	.	.
!LO:TX:t=P:problem:kreska pseudotaktowa	!	!	!	!
2E\	-que	.	.	.
=16-	=16-	=16-	=16-	=16-
2.F\	e-	1ryy	1ryy	1ryy
4E\	.	.	.	.
4D/	.	1ryy	1ryy	1ryy
4C/	.	.	.	.
2BB-/	.	.	.	.
=17-	=17-	=17-	=17-	=17-
2D/	-la-	1ryy	1ryy	1ryy
2AA/	-ti	.	.	.
2D/	sunt	1ryy	1ryy	1ryy
*	*ij	*	*	*
1D\	ne-	.	.	.
=18-	=18-	=18-	=18-	=18-
.	.	1ryy	1ryy	1ryy
!LO:TX:t=P:problem:kreska pseudotaktowa	!	!	!	!
2C#X/	-que	.	.	.
1D	e-	1ryy	1ryy	1ryy
=19-	=19-	=19-	=19-	=19-
2F\	-la-	1ryy	1ryy	1ryy
2F\	-ti	.	.	.
!LO:TX:t=P:problem:kreska pseudotaktowa	!	!	!	!
1Cny	sunt	1ryy	1ryy	1ryy
*	*Xij	*	*	*
=20-	=20-	=20-	=20-	=20-
!LO:TX:t=P:problem:kreska pseudotaktowa	!	!	!	!
1r	.	1ryy	1ryy	1ryy
2.D/	o-	1ryy	1ryy	1ryy
4D/	-cu-	.	.	.
=21-	=21-	=21-	=21-	=21-
!LO:TX:t=P:problem:kreska pseudotaktowa	!	!	!	!
1AA	-li	1ryy	1ryy	1ryy
2.BB-/	me-	1ryy	1ryy	1ryy
4C/	.	.	.	.
=22-	=22-	=22-	=22-	=22-
4D/	.	1ryy	1ryy	1ryy
4BB-/	.	.	.	.
2F\	.	.	.	.
!LO:TX:t=P:problem:kreska pseudotaktowa	!	!	!	!
1D	-i	1ryy	1ryy	1ryy
=23-	=23-	=23-	=23-	=23-
00r	.	1ryy	1ryy	1ryy
.	.	1ryy	1ryy	1ryy
=24-	=24-	=24-	=24-	=24-
.	.	0ryy	0ryy	0ryy
=25-	=25-	=25-	=25-	=25-
2.BB-/	ne-	1ryy	1ryy	1ryy
4C/	.	.	.	.
1D	.	1ryy	1ryy	1ryy
=26-	=26-	=26-	=26-	=26-
2GG/	-que	0ryy	0ryy	0ryy
1G\	am-	.	.	.
2D\	-bu-	.	.	.
=27-	=27-	=27-	=27-	=27-
1E-X	-la-	1ryy	1ryy	1ryy
!LO:TX:t=P:problem:kreska pseudotaktowa	!	!	!	!
1D	-vi	1ryy	1ryy	1ryy
=28-	=28-	=28-	=28-	=28-
!LO:TX:a:t=2	!	!	!	!
0r	.	0ryy	0ryy	0ryy
=29-	=29-	=29-	=29-	=29-
2.D/	ne-	1ryy	1ryy	1ryy
4C/	.	.	.	.
2BB-/	.	1ryy	1ryy	1ryy
!LO:TX:t=P:problem:kreska pseudotaktowa	!	!	!	!
!LO:TX:t=P:problem:oddechy jako rozdzielacze slow:global	!	!	!	!
2BB-,</	-que	.	.	.
=30-	=30-	=30-	=30-	=30-
2F\	am-	1ryy	1ryy	1ryy
2F\	-bu-	.	.	.
2.D\	-la-	1ryy	1ryy	1ryy
4Eny\	.	.	.	.
=31-	=31-	=31-	=31-	=31-
4F\	.	1ryy	1ryy	1ryy
4E\	.	.	.	.
4D\	.	.	.	.
4C\	.	.	.	.
1BB-	.	1ryy	1ryy	1ryy
=32-	=32-	=32-	=32-	=32-
1C	-vi	1ryy	1ryy	1ryy
1D	in	1ryy	1ryy	1ryy
=33-	=33-	=33-	=33-	=33-
1D	mag-	1ryy	1ryy	1ryy
!LO:TX:t=P:problem:kreska pseudotaktowa	!	!	!	!
1GG	-nis	1ryy	1ryy	1ryy
=34-	=34-	=34-	=34-	=34-
!LO:TX:t=P:problem:kreska pseudotaktowa	!	!	!	!
00r	.	0ryy	0ryy	0ryy
=35-	=35-	=35-	=35-	=35-
.	.	0ryy	0ryy	0ryy
=36-	=36-	=36-	=36-	=36-
1C	ne-	1ryy	1ryy	1ryy
1D	-que	1ryy	1ryy	1ryy
=37-	=37-	=37-	=37-	=37-
2GG/	in	0ryy	0ryy	0ryy
2.BB-/	mi-	.	.	.
4C/	.	.	.	.
2D/	.	.	.	.
=38-	=38-	=38-	=38-	=38-
1E-X	-ra-	1ryy	1ryy	1ryy
2D/	-bi-	1ryy	1ryy	1ryy
2BB-/	-li-	.	.	.
=39-	=39-	=39-	=39-	=39-
1F	-bus	1ryy	1ryy	1ryy
2C/	su-	1ryy	1ryy	1ryy
2C/	-per	.	.	.
=40-	=40-	=40-	=40-	=40-
1D	me	1ryy	1ryy	1ryy
!LO:TX:t=P:problem:kreska pseudotaktowa	!	!	!	!
1AA	.	1ryy	1ryy	1ryy
=41-	=41-	=41-	=41-	=41-
0r	.	0ryy	0ryy	0ryy
=42-	=42-	=42-	=42-	=42-
2r	.	1ryy	1ryy	1ryy
!LO:TX:t=P:problem:kreska pseudotaktowa	!	!	!	!
2D/	si	.	.	.
2D/	non	1ryy	1ryy	1ryy
!LO:TX:t=P:problem:kreska pseudotaktowa	!	!	!	!
2BB-/	hu-	.	.	.
=43-	=43-	=43-	=43-	=43-
4D/	-mi-	1ryy	1ryy	1ryy
4C/	.	.	.	.
4D/	.	.	.	.
4Eny/	.	.	.	.
1.F	.	1ryy	1ryy	1ryy
=44-	=44-	=44-	=44-	=44-
.	.	1ryy	1ryy	1ryy
2F\	-li-	.	.	.
2F\	-ter	1ryy	1ryy	1ryy
!LO:TX:t=P:problem:kreska pseudotaktowa	!	!	!	!
2D\	sen-	.	.	.
=45-	=45-	=45-	=45-	=45-
2C/	-ti-	0ryy	0ryy	0ryy
1F\	-e-	.	.	.
!LO:TX:t=P:problem:kreska pseudotaktowa	!	!	!	!
2E\	-bam	.	.	.
=46-	=46-	=46-	=46-	=46-
1F	sen-	1ryy	1ryy	1ryy
2D\	-ti-	1ryy	1ryy	1ryy
2.D\	-e-	.	.	.
=47-	=47-	=47-	=47-	=47-
.	.	1ryy	1ryy	1ryy
4E\	.	.	.	.
!LO:TX:t=P:problem:kreska pseudotaktowa	!	!	!	!
2F\	.	.	.	.
4F\	.	1ryy	1ryy	1ryy
4E\	.	.	.	.
4D/	.	.	.	.
4C/	.	.	.	.
=48-	=48-	=48-	=48-	=48-
!LO:TX:t=P:problem:kreska pseudotaktowa	!	!	!	!
0BB-	-bam	0ryy	0ryy	0ryy
=49-	=49-	=49-	=49-	=49-
00r	.	0ryy	0ryy	0ryy
=50-	=50-	=50-	=50-	=50-
.	.	0ryy	0ryy	0ryy
=51-	=51-	=51-	=51-	=51-
2r	.	1ryy	1ryy	1ryy
2C/	sed	.	.	.
2F\	e-	1ryy	1ryy	1ryy
2E\	-xal-	.	.	.
=52-	=52-	=52-	=52-	=52-
1A	-ta-	1ryy	1ryy	1ryy
2G\	-vi	1ryy	1ryy	1ryy
4F\	.	.	.	.
!LO:TX:t=P:problem:kreska pseudotaktowa	!	!	!	!
4E\	.	.	.	.
=53-	=53-	=53-	=53-	=53-
2D,</	sed	1ryy	1ryy	1ryy
2C/	e-	.	.	.
2F\	-xal-	1ryy	1ryy	1ryy
2E\	-ta-	.	.	.
=54-	=54-	=54-	=54-	=54-
2F\	-vi	1ryy	1ryy	1ryy
!LO:TX:t=P:problem:kreska pseudotaktowa	!	!	!	!
2C/	.	.	.	.
2r	.	1ryy	1ryy	1ryy
2F\	a-	.	.	.
=55-	=55-	=55-	=55-	=55-
2F\	-ni-	1ryy	1ryy	1ryy
!LO:TX:t=P:problem:kreska pseudotaktowa	!	!	!	!
2F\	-mam	.	.	.
1C	me-	1ryy	1ryy	1ryy
=56-	=56-	=56-	=56-	=56-
2FF,</	-am	1ryy	1ryy	1ryy
*	*ij	*	*	*
2FF/	a-	.	.	.
2BB-/	-ni-	1ryy	1ryy	1ryy
2AA/	-mam	.	.	.
=57-	=57-	=57-	=57-	=57-
1BB-	me-	1ryy	1ryy	1ryy
!LO:N:vis=00	!	!	!	!
1F;	-am	1ryy	1ryy	1ryy
*	*Xij	*	*	*
==	==	==	==	==
*-	*-	*-	*-	*-
!!!RDF**kern: > = above
!!!RDF**kern: < = below
!!!RDF**kern: l = terminal long
!!!system-decoration: [(s1,s2,s3,s4)]
!!!ENC: Mateusz Solarz
!!!END: 2021-02-11
